X:32
T:Star of Munster
R:Reel
M:C|
Q:200
K:Ador
"Am"cBAc "G"BAGB|"Am"AGEF "G"GED2|"Am"EAAB cBcd|eaaf "Em"gfed|
"Am"cBAc "G"BAGB|"Am"AGEF "G"GED2|"Am"EAAB cBcd|"Em"edcB "Am"A4:|
|:"Am"a3b ageg|agab agef|"G"g2 ga gfef|gfga gfe2|
"Am"a3b ageg|agab agef|"G"g4 "Am"a4|1"G"b3a "Em"gfe2:|2"G"b3a "Em"gfed|]


%% scale 0.87
%%newpage
%% header "Randy+Will+Noel - Maison de Glace / Fée Des Dents		$P"

